X:109
T:Ridotto al Fresco
M:2/4
L:1/8
B:Thompson's Compleat Collection of 200 Favourite Country Dances, vol. 3 (London, 1773)
Z:Transcribed and edited by Flynn Titford-Mock, 2007
Z:abc's:AK/Fiddler's Companion
K:D
f | e/g/e/c/ df | e/g/e/c/ dA | BABc | d/c/d/e/ df | e/g/e/c/ dA | BABc | d3 :|
|: g | f/a/f/d/ f/a/f/d/ | f/a/g/b/ eg | f/a/f/d/ f/a/f/d/ | e/a/e/c/ Ag |
f/a/f/d/ f/a/f/d/ | f/a/g/b/ eg | f/a/f/d/ e/g/e/c/ | d3 :|

